assets/cssPreprocessors.svg

<svg xmlns="http://www.w3.org/2000/svg" version="1.1" viewBox="1 1 511 511.99998">
  <g id="surface1">
    <path d="M 415.394531 0 L 380.085938 0 L 380.085938 141.242188 L 415.394531 141.242188 Z M 415.394531 0 " style=" stroke:none;fill-rule:nonzero;fill:rgb(10.196078%,43.529412%,69.019608%);fill-opacity:1;" />
    <path d="M 247.671875 326.621094 L 282.984375 326.621094 L 282.984375 185.378906 L 247.671875 185.378906 Z M 247.671875 326.621094 " style=" stroke:none;fill-rule:nonzero;fill:rgb(10.196078%,43.529412%,69.019608%);fill-opacity:1;" />
    <path d="M 132.914062 370.757812 L 97.605469 370.757812 L 97.605469 512 L 132.914062 512 Z M 132.914062 370.757812 " style=" stroke:none;fill-rule:nonzero;fill:rgb(10.196078%,43.529412%,69.019608%);fill-opacity:1;" />
    <path d="M 415.394531 70.621094 L 512.5 70.621094 L 512.5 123.585938 L 415.394531 123.585938 Z M 415.394531 70.621094 " style=" stroke:none;fill-rule:nonzero;fill:rgb(35.294118%,66.666667%,90.588235%);fill-opacity:1;" />
    <path d="M 415.394531 17.65625 L 512.5 17.65625 L 512.5 70.621094 L 415.394531 70.621094 Z M 415.394531 17.65625 " style=" stroke:none;fill-rule:nonzero;fill:rgb(47.058824%,72.54902%,92.156863%);fill-opacity:1;" />
    <path d="M 141.742188 17.65625 C 63.734375 17.65625 0.5 80.890625 0.5 158.898438 L 0.5 167.722656 C 0.5 245.730469 63.734375 308.964844 141.742188 308.964844 L 247.671875 308.964844 L 247.671875 256 L 141.742188 256 C 92.988281 256 53.464844 216.476562 53.464844 167.722656 L 53.464844 158.898438 C 53.464844 110.144531 92.988281 70.621094 141.742188 70.621094 L 380.085938 70.621094 L 380.085938 17.65625 Z M 141.742188 17.65625 " style=" stroke:none;fill-rule:nonzero;fill:rgb(47.058824%,72.54902%,92.156863%);fill-opacity:1;" />
    <path d="M 53.464844 158.898438 L 53.464844 167.722656 C 53.464844 216.476562 92.988281 256 141.742188 256 L 247.671875 256 L 247.671875 203.035156 L 150.570312 203.035156 C 131.066406 203.035156 115.257812 187.226562 115.257812 167.722656 L 115.257812 158.898438 C 115.257812 139.394531 131.066406 123.585938 150.570312 123.585938 L 380.085938 123.585938 L 380.085938 70.621094 L 141.742188 70.621094 C 92.988281 70.621094 53.464844 110.144531 53.464844 158.898438 Z M 53.464844 158.898438 " style=" stroke:none;fill-rule:nonzero;fill:rgb(35.294118%,66.666667%,90.588235%);fill-opacity:1;" />
    <path d="M 0.5 388.414062 L 97.605469 388.414062 L 97.605469 441.378906 L 0.5 441.378906 Z M 0.5 388.414062 " style=" stroke:none;fill-rule:nonzero;fill:rgb(47.058824%,72.54902%,92.156863%);fill-opacity:1;" />
    <path d="M 0.5 441.378906 L 97.605469 441.378906 L 97.605469 494.34375 L 0.5 494.34375 Z M 0.5 441.378906 " style=" stroke:none;fill-rule:nonzero;fill:rgb(35.294118%,66.666667%,90.588235%);fill-opacity:1;" />
    <path d="M 362.429688 308.964844 C 381.933594 308.964844 397.742188 324.773438 397.742188 344.277344 L 397.742188 353.101562 C 397.742188 372.605469 381.933594 388.414062 362.429688 388.414062 L 132.914062 388.414062 L 132.914062 441.378906 L 371.257812 441.378906 C 420.011719 441.378906 459.535156 401.855469 459.535156 353.105469 L 459.535156 344.277344 C 459.535156 295.523438 420.011719 256 371.257812 256 L 282.984375 256 L 282.984375 308.96875 L 362.429688 308.96875 Z M 362.429688 308.964844 " style=" stroke:none;fill-rule:nonzero;fill:rgb(47.058824%,72.54902%,92.156863%);fill-opacity:1;" />
    <path d="M 459.535156 344.277344 L 459.535156 353.101562 C 459.535156 401.855469 420.011719 441.378906 371.257812 441.378906 L 132.914062 441.378906 L 132.914062 494.34375 L 371.257812 494.34375 C 449.261719 494.34375 512.5 431.109375 512.5 353.101562 L 512.5 344.277344 C 512.5 266.269531 449.261719 203.035156 371.257812 203.035156 L 282.984375 203.035156 L 282.984375 256 L 371.257812 256 C 420.011719 256 459.535156 295.523438 459.535156 344.277344 Z M 459.535156 344.277344 " style=" stroke:none;fill-rule:nonzero;fill:rgb(35.294118%,66.666667%,90.588235%);fill-opacity:1;" />
  </g>
</svg>

<svg xmlns="http://www.w3.org/2000/svg" viewBox="1 1 511 512"><path d="M415.395 0h-35.31v141.242h35.31zm0 0M247.672 326.621h35.312V185.38h-35.312zm0 0M132.914 370.758H97.605V512h35.31zm0 0" fill="#1a6fb0"/><path d="M415.395 70.621H512.5v52.965h-97.105zm0 0" fill="#5aaae7"/><path d="M415.395 17.656H512.5v52.965h-97.105zm0 0M141.742 17.656C63.734 17.656.5 80.891.5 158.898v8.825c0 78.007 63.234 141.242 141.242 141.242h105.93V256h-105.93c-48.754 0-88.277-39.523-88.277-88.277v-8.825c0-48.753 39.523-88.277 88.277-88.277h238.344V17.656zm0 0" fill="#78b9eb"/><path d="M53.465 158.898v8.825c0 48.754 39.523 88.277 88.277 88.277h105.93v-52.965H150.57c-19.504 0-35.312-15.808-35.312-35.312v-8.825c0-19.503 15.808-35.312 35.312-35.312h229.516V70.62H141.742c-48.754 0-88.277 39.524-88.277 88.277zm0 0" fill="#5aaae7"/><path d="M.5 388.414h97.105v52.965H.5zm0 0" fill="#78b9eb"/><path d="M.5 441.379h97.105v52.965H.5zm0 0" fill="#5aaae7"/><path d="M362.43 308.965c19.504 0 35.312 15.808 35.312 35.312v8.825c0 19.503-15.808 35.312-35.312 35.312H132.914v52.965h238.344c48.754 0 88.277-39.524 88.277-88.274v-8.828c0-48.754-39.523-88.277-88.277-88.277h-88.274v52.969h79.446zm0 0" fill="#78b9eb"/><path d="M459.535 344.277v8.825c0 48.753-39.523 88.277-88.277 88.277H132.914v52.965h238.344c78.004 0 141.242-63.235 141.242-141.242v-8.825c0-78.007-63.238-141.242-141.242-141.242h-88.274V256h88.274c48.754 0 88.277 39.523 88.277 88.277zm0 0" fill="#5aaae7"/></svg>
